X:204
T: Das Traenenkrueglein
N: Q1122D
O: Mitteleuropa, Deutschland (DDR) , Thueringen, Saaldorf
N: Melodievergleich zu Q0122A und B, anderes Lied.
R: ???
M: 3/4
L: 1/16
K: G
D2D2 | G2G2B4d2d2 | c2F2A4
D2D2 | F2F2A2A2d2d2d2 | d2G2B4
D2D2 | G2G2B3Bd2d2 | c2F2A4
d2d2 | f2e2d2d2c2F2 | G4z4

